X: 1
T: Happy, The
M: 4/4
L: 1/8
R: reel
K: Gmaj
fgdB GABG | AGEF GED^A, | B,DE^A, B,DG=A | BdcB A2 (3fff |
fgdB GABG | AGEF GED^A, | B,DE^A, B,DGB | [1 AGEF G3 f :| [2 AGEF G3 E ||
DEGB dBGF | G2 EG cde^c | AB^ce afec | dfe^c dega |
bggb aged | eagb agef | gedB GABG | AGEF G3 E :|
